X:473
%%etbk:tnset id:192,pos:1,rep:3,ant:
T: Galway Girl, The (Instrumental Parts)
Z: Piano Box Version by Martin Fleischmann
H: Created 2013-03-09 /  Last Modified 2013-03-09
R: song
M: 4/4
L: 1/8
K: Bbmaj
"Intro" !2!Bc |: "Bb"!4!d2c2B3c | !4!d2dc!2!!1!B4 | "Eb"!3!g3g-ga!5!ba | !3!g2f2"Bb"!1!d4|
"Eb"!5!g3g"Bb"!4!f3f | !3!ed!1!c!2!B !4!d4 | "F"!3!c3c-cd!5!ed | !3!c2!2!B2 "Bb"B4 :|
|:"Sing-a-Long""Eb"!3!g4g3f| !3!g2a2!5!b4| "Bb"!2!f3!4!f fed2 | "F"!1!c8 |  
"Eb"!5!g3g"Bb"!4!f3f | !3!ed!1!c!2!B !4!d4 | "F"!3!c3c-cd!5!ed | !3!c2!2!B2 "Bb"B4 :|
|"Zwischenwurf 1" "Bb"z2!1!FF !2!G!3!B-B>!2!G| !3!B2z2z2z2|"Zwischenwurf 2" "Bb"z2!1!FF !2!G!3!B-B>!4!c| !5!dc!3!B2z2z2|


